X:1
T:La pastorella si leva
T:La pastorella si leva
T:anon. (c. 1568)
T:www.sangerforum.no
T:www.sangerforum.no
C:anon. (c. 1568)
Z:www.sangerforum.no
%%score [ 1 2 3 ]
L:1/8
Q:1/2=60
M:2/2
K:A
V:1 treble nm="Sopran"
V:2 treble nm="Alt"
V:3 bass nm="Baryton"
V:1
 c2 c c c2 c2 | d3 c B2 A2 | (A2 G2) A4 | c2 c c c2 c2 | d3 c B2 A2 | (A2 G2) A2 B2 | %6
w: La pas- to- rel- la|si le- va per|tem- * po,|la pas- to- rel- la|si le- va per|tem- * po, me-|
 B2 B B2 B (B2 | A2) G4 B2 | c2 A (A2 G/F/ G2) | A6 B2 | B2 B B2 B (B2 | A2) G4 B2 | %12
w: nan- do le ca- pre-|* te a|pas- cer fo- * * *|ra, me-|nan- do le ca- pre-|* te a|
 c2 A (A2 G/F/ G2) | A4 (3A2 F2 G2 | (3:2:2A4 A2 (3A2 F2 G2 | (3:2:2A4 A2 (3A2 F2 G2 | %16
w: pas- cer fo- * * *|ra. Di for' in|fo- ra, la tra- di-|to- ra coi suoi begl'|
 (3:2:2A4 A2 (3A2 F2 G2 | A2 A2 B2 B2 | B B2 B (B2 A2) | G2 B2 c2 A (A2 G/F/ G2) | %20
w: oc- chi lam' in- na-|mo- ra, e fa|di- mez- za not- *|te ap- pa- rir gior- * * *|
 A2 B2 B2 B B2 B (B2 | A2) G4 B2 | c2 A (A2 G/F/ G2) | A8 |] %24
w: no, e fa di mez- za not-|* te ap-|pa- rir gior- * * *|no.|
V:2
 E2 E E E2 E2 | F3 E D2 C2 | B,4 A,4 | E2 E E E2 E2 | F3 E D2 C2 | B,4 A,2 D2 | D2 D D2 D (D2 | %7
w: La pas- to- rel- la|si le- va per|tem- po,|la pas- to- rel- la|si le- va per|tem- po, me-|nan- do le ca- pre-|
 C2) B,4 E2 | C2 D2 B,4 | A,6 D2 | D2 D D2 D (D2 | C2) B,4 E2 | C2 D2 B,4 | A,4 (3C2 D2 B,2 | %14
w: * te a|pas- cer fo-|ra, me-|nan- do le ca- pre-|* te a|pas- cer fo-|ra. Di for' in|
 (3:2:2C4 C2 (3C2 D2 B,2 | (3:2:2C4 C2 (3C2 D2 B,2 | (3:2:2C4 C2 (3C2 D2 B,2 | C2 C2 D2 D2 | %18
w: fo- ra, la tra- di-|to- ra coi suoi begl'|oc- chi lam' in- na-|mo- ra, e fa|
 D D2 D (D2 C2) | B,2 E2 C2 D2 B,4 | C2 D2 D2 D D2 D (D2 | C2) B,4 E2 | C2 D2 B,4 | A,8 |] %24
w: di- mez- za not- *|te ap- pa- rir gior-|no, e fa di mez- za not-|* te ap-|pa- rir gior-|no.|
V:3
 A,2 A, A, A,2 A,2 | D,3 E, =G,2 A,2 | E,4 A,,4 | A,2 A, A, A,2 A,2 | D,3 E, =G,2 A,2 | %5
w: La pas- to- rel- la|si le- va per|tem- po,|la pas- to- rel- la|si le- va per|
 E,4 A,,2 =G,2 | =G,2 G, G,2 G, (((G,2 | A,2))) E,4 E,2 | A,2 D,2 E,4 | A,,6 =G,2 | %10
w: tem- po, me-|nan- do le ca- pre-|* te a|pas- cer fo-|ra, me-|
 =G,2 G, G,2 G, (((G,2 | A,2))) E,4 E,2 | A,2 D,2 E,4 | A,,4 (3A,2 B,2 B,2 | %14
w: nan- do le ca- pre-|* te a|pas- cer fo-|ra. Di for' in|
 (3:2:2A,4 A,2 (3A,2 B,2 B,2 | (3:2:2A,4 A,2 (3A,2 B,2 B,2 | (3:2:2A,4 A,2 (3A,2 B,2 B,2 | %17
w: fo- ra, la tra- di-|to- ra coi suoi begl'|oc- chi lam' in- na-|
 A,2 A,2 =G,2 G,2 | =G, G,2 G, (((G,2 A,2))) | E,2 E,2 A,2 D,2 E,4 | %20
w: mo- ra, e fa|di- mez- za not- *|te ap- pa- rir gior-|
 A,,2 =G,2 G,2 G, G,2 G, (((G,2 | A,2))) E,4 E,2 | C2 D,2 E,4 | A,,8 |] %24
w: no, e fa di mez- za not-|* te ap-|pa- rir gior-|no.|

